X:1120
T:"Tea In The Morning" (slipjig) 1120
C:Trad/Anon
B:O'Neill's Music Of Ireland (The 1850) Lyon & Healy, Chicago, 1903 edition
Z:FROM O'NEILL'S TO NOTEWORTHY, FROM NOTEWORTHY TO ABC, MIDI AND .TXT BY VINCE
BRENNAN July 2003 (HTTP://WWW.SOSYOURMOM.COM)
I:abc2nwc
M:9/8
L:1/8
K:G
d2G G(FGA/2) B3|G zd d zG ABc|d2G GFGG/2 A3|cBA GFE GAB:|
ded c zd B3|G zd d zG ABc|ded c zd B2c|dcB AGF ABc||
ded c zd B3|G zd d zG ABc|d zg fdc B2c|dcB AGF ABc|]


